X:174
T:Julia Delaney
Z: id:dc-reel-161
M:C
L:1/8
K:D Minor
A|dcAG F2DF|E2CE F2DF|dcAG F2DF|Add^c defe|!
dcAG F2DF|E2CE F2DF|dcAG F2DF|Add^c d3:|!
e|fede fagf|ecgc acgc|fede fagf|edcA Adde|!
fede fagf|ecgc acgc|fedf edcA|Add^c d3:|!

